Costumes/S-glow.svg

<?xml version="1.0" encoding="UTF-8" standalone="no"?>
<svg
   version="1.1"
   width="54.818848"
   height="81.942101"
   id="svg8"
   sodipodi:docname="S-glow.svg"
   xmlns:inkscape="http://www.inkscape.org/namespaces/inkscape"
   xmlns:sodipodi="http://sodipodi.sourceforge.net/DTD/sodipodi-0.dtd"
   xmlns="http://www.w3.org/2000/svg"
   xmlns:svg="http://www.w3.org/2000/svg">
  <defs
     id="defs12" />
  <sodipodi:namedview
     id="namedview10"
     pagecolor="#ffffff"
     bordercolor="#000000"
     borderopacity="0.25"
     inkscape:showpageshadow="2"
     inkscape:pageopacity="0.0"
     inkscape:pagecheckerboard="0"
     inkscape:deskcolor="#d1d1d1" />
  <!-- Exported by Scratch - http://scratch.mit.edu/ -->
  <g
     id="ID0.9805312547832727"
     transform="translate(0,9.9697706e-5)">
    <g
       id="ID0.2794777057133615">
      <g
         id="ID0.2817511581815779">
        <path
           id="ID0.1519448710605502"
           fill="#00cccc"
           d="m 53.78,59.432 c -3.23,8.95 -12.01,14.39 -26.09,16.17 -0.64,0.08 -1.27,0.13 -1.9,0.15 -0.82,1.2 -1.89,2.24 -3.15,3.05 -3.3,2.11 -6.39,3.14 -9.44,3.14 -6.27,0 -13.02,-4.68 -13.02,-14.96 0,-0.7 0.03,-1.61 0.1,-2.87 0.03,-0.54 0.06,-0.96 0.07,-1.27 -0.17,-0.78 -0.26,-1.57 -0.26,-2.37 v -4.84 c 0,-0.79 0.08,-1.58 0.24,-2.37 0.01,-0.67 0.04,-1.42 0.09,-2.24 C 0.18,50.142 0,49.122 0,47.982 c 0,-0.52 0.04,-1.04 0.11,-1.55 0.38,-2.68 1.57,-5.37 3.58,-7.52 C 3,36.982 2.64,34.942 2.64,32.852 v -5.1 c 0,-2.07 0.41,-4.65 2.42,-11.07 0.84,-2.76 1.11,-3.62 1.48,-4.42 1.97,-4.42 4.94,-6.63 7.1,-7.72 3.53,-1.76 7.32,-2.66 11.26,-2.66 1.82,0 3.56,0.19 5.22,0.55 0.74,-0.5 1.53,-0.92 2.37,-1.27 1.07,-0.46 2.21,-0.78 3.47,-0.98 3.15,-0.54 6.48,0.13 9.38,1.89 3.05,1.86 6.55,5.72 6.12,13.66 -0.07,1.4 -0.19,3.27 -0.37,5.71 -0.01,0.06 -0.01,0.12 -0.02,0.18 -0.16,1.77 -0.39,4.41 -0.7,7.9 0.08,1.35 0.05,2.86 -0.07,4.64 -0.05,0.68 -0.16,1.36 -0.34,2.02 -0.04,0.15 -0.08,0.29 -0.12,0.42 1.35,1.73 2.27,3.46 2.9,4.96 0.59,1.19 1.09,2.56 1.53,4.23 0.17,0.63 0.28,1.27 0.33,1.92 0.45,5.61 0.22,8.92 -0.82,11.72 z" />
      </g>
    </g>
    <g
       id="ID0.20706806425005198">
      <path
         id="ID0.570444684009999"
         fill="#ffffff"
         d="m 43.636,48.596 c 0.293,3.637 0.233,5.981 -0.176,7.037 -1.702,4.809 -7.42,7.828 -17.152,9.06 -3.285,0.411 -6.568,-1.143 -9.853,-4.662 0,0.528 0.117,2.111 0.353,4.751 0.176,1.935 0.146,3.518 -0.088,4.749 -1.467,0.938 -2.639,1.408 -3.519,1.408 -1.35,0 -2.023,-1.319 -2.023,-3.959 0,-0.469 0.029,-1.216 0.088,-2.242 0.058,-1.025 0.088,-1.744 0.088,-2.155 0,-0.997 -0.088,-1.7 -0.264,-2.111 v -4.838 c 0,-0.117 0.029,-0.249 0.088,-0.396 0.058,-0.146 0.117,-0.278 0.176,-0.396 -0.059,-0.82 -0.03,-2.081 0.088,-3.782 0.117,-1.056 0.117,-1.729 0,-2.023 -0.294,-0.585 -0.439,-0.937 -0.439,-1.055 0.233,-1.642 1.437,-2.463 3.606,-2.463 1.407,0 2.257,0.499 2.551,1.495 0,0.938 0.117,2.317 0.352,4.134 0.353,2.111 1.466,4.223 3.343,6.333 2.052,2.405 4.016,3.519 5.894,3.343 2.111,-0.233 4.222,-0.732 6.333,-1.495 2.932,-1.056 4.691,-2.287 5.278,-3.694 0.409,-1.056 0.615,-2.169 0.615,-3.343 0,-3.576 -1.319,-6.245 -3.958,-8.004 -1.174,-0.762 -3.343,-1.378 -6.51,-1.848 -1.818,-0.233 -2.933,-0.352 -3.342,-0.352 -2.815,0.059 -5.44,-0.85 -7.873,-2.727 -2.434,-1.876 -3.65,-4.047 -3.65,-6.51 V 27.75 c 0,-1.113 0.645,-3.723 1.936,-7.828 0.585,-1.936 0.908,-2.961 0.968,-3.079 0.527,-1.231 1.201,-2.052 2.022,-2.463 1.993,-0.996 4.104,-1.495 6.333,-1.495 4.339,0 7.535,1.759 9.588,5.277 0.176,0.176 0.469,0.44 0.88,0.792 0.058,-0.82 0.176,-2.081 0.352,-3.782 -0.059,-0.762 -0.118,-1.495 -0.176,-2.199 0,-0.82 0.409,-1.377 1.231,-1.671 0.234,-0.117 0.557,-0.205 0.968,-0.264 0.586,-0.117 1.217,0.03 1.892,0.439 0.673,0.411 0.952,1.643 0.835,3.694 -0.059,1.29 -0.176,3.108 -0.352,5.453 -0.176,1.936 -0.439,4.897 -0.792,8.885 0.117,0.938 0.117,2.229 0,3.87 -0.294,1.114 -1.174,1.671 -2.639,1.671 -0.763,0 -1.495,-0.205 -2.199,-0.615 -0.352,-1.113 -0.527,-1.584 -0.527,-1.408 0.116,-1.583 -0.206,-3.694 -0.968,-6.333 -0.646,-1.348 -1.539,-3.268 -2.683,-5.761 -1.144,-2.492 -2.654,-3.827 -4.53,-4.003 -2.346,-0.176 -3.87,0.616 -4.574,2.375 -0.234,0.763 -0.558,1.878 -0.967,3.343 -0.704,2.17 -1.144,4.252 -1.32,6.245 -0.059,0.646 -0.118,0.91 -0.176,0.792 0.176,1.174 0.381,2.346 0.616,3.519 0.293,1.466 1.012,2.581 2.155,3.342 1.144,0.763 3.327,1.231 6.553,1.407 7.916,0.471 12.812,3.227 14.689,8.269 0.292,0.47 0.585,1.261 0.879,2.374 z" />
    </g>
  </g>
</svg>

<svg version="1.1" width="55" height="82" xmlns="http://www.w3.org/2000/svg" xmlns:xlink="http://www.w3.org/1999/xlink">
  <!-- Exported by Scratch - http://scratch.mit.edu/ -->
  <g id="ID0.9805312547832727">
    <g id="ID0.2794777057133615">
      <g id="ID0.2817511581815779">
        <path id="ID0.1519448710605502" fill="#00CCCC" d="M 53.780 59.432 C 50.550 68.382 41.770 73.822 27.690 75.602 C 27.050 75.682 26.420 75.732 25.790 75.752 C 24.970 76.952 23.900 77.992 22.640 78.802 C 19.340 80.912 16.250 81.942 13.200 81.942 C 6.930 81.942 0.180 77.262 0.180 66.982 C 0.180 66.282 0.210 65.372 0.280 64.112 C 0.310 63.572 0.340 63.152 0.350 62.842 C 0.180 62.062 0.090 61.272 0.090 60.472 L 0.090 55.632 C 0.090 54.842 0.170 54.052 0.330 53.262 C 0.340 52.592 0.370 51.842 0.420 51.022 C 0.180 50.142 0 49.122 0 47.982 C 0 47.462 0.040 46.942 0.110 46.432 C 0.490 43.752 1.680 41.062 3.690 38.912 C 3 36.982 2.640 34.942 2.640 32.852 L 2.640 27.752 C 2.640 25.682 3.050 23.102 5.060 16.682 C 5.900 13.922 6.170 13.062 6.540 12.262 C 8.510 7.842 11.480 5.632 13.640 4.542 C 17.170 2.782 20.960 1.882 24.900 1.882 C 26.720 1.882 28.460 2.072 30.120 2.432 C 30.860 1.932 31.650 1.512 32.490 1.162 C 33.560 0.702 34.700 0.382 35.960 0.182 C 39.110 -0.358 42.440 0.312 45.340 2.072 C 48.390 3.932 51.890 7.792 51.460 15.732 C 51.390 17.132 51.270 19.002 51.090 21.442 C 51.080 21.502 51.080 21.562 51.070 21.622 C 50.910 23.392 50.680 26.032 50.370 29.522 C 50.450 30.872 50.420 32.382 50.300 34.162 C 50.250 34.842 50.140 35.522 49.960 36.182 C 49.920 36.332 49.880 36.472 49.840 36.602 C 51.190 38.332 52.110 40.062 52.740 41.562 C 53.330 42.752 53.830 44.122 54.270 45.792 C 54.440 46.422 54.550 47.062 54.600 47.712 C 55.050 53.322 54.820 56.632 53.780 59.432 Z "/>
      </g>
    </g>
    <g id="ID0.20706806425005198">
      <path id="ID0.570444684009999" fill="#FFFFFF" d="M 43.636 48.596 C 43.929 52.233 43.869 54.577 43.460 55.633 C 41.758 60.442 36.040 63.461 26.308 64.693 C 23.023 65.104 19.740 63.550 16.455 60.031 C 16.455 60.559 16.572 62.142 16.808 64.782 C 16.984 66.717 16.954 68.300 16.720 69.531 C 15.253 70.469 14.081 70.939 13.201 70.939 C 11.851 70.939 11.178 69.620 11.178 66.980 C 11.178 66.511 11.207 65.764 11.266 64.738 C 11.324 63.713 11.354 62.994 11.354 62.583 C 11.354 61.586 11.266 60.883 11.090 60.472 L 11.090 55.634 C 11.090 55.517 11.119 55.385 11.178 55.238 C 11.236 55.092 11.295 54.960 11.354 54.842 C 11.295 54.022 11.324 52.761 11.442 51.060 C 11.559 50.004 11.559 49.331 11.442 49.037 C 11.148 48.452 11.003 48.100 11.003 47.982 C 11.236 46.340 12.440 45.519 14.609 45.519 C 16.016 45.519 16.866 46.018 17.160 47.014 C 17.160 47.952 17.277 49.331 17.512 51.148 C 17.865 53.259 18.978 55.371 20.855 57.481 C 22.907 59.886 24.871 61 26.749 60.824 C 28.860 60.591 30.971 60.092 33.082 59.329 C 36.014 58.273 37.773 57.042 38.360 55.635 C 38.769 54.579 38.975 53.466 38.975 52.292 C 38.975 48.716 37.656 46.047 35.017 44.288 C 33.843 43.526 31.674 42.910 28.507 42.440 C 26.689 42.207 25.574 42.088 25.165 42.088 C 22.350 42.147 19.725 41.238 17.292 39.361 C 14.858 37.485 13.642 35.314 13.642 32.851 L 13.642 27.750 C 13.642 26.637 14.287 24.027 15.578 19.922 C 16.163 17.986 16.486 16.961 16.546 16.843 C 17.073 15.612 17.747 14.791 18.568 14.380 C 20.561 13.384 22.672 12.885 24.901 12.885 C 29.240 12.885 32.436 14.644 34.489 18.162 C 34.665 18.338 34.958 18.602 35.369 18.954 C 35.427 18.134 35.545 16.873 35.721 15.172 C 35.662 14.410 35.603 13.677 35.545 12.973 C 35.545 12.153 35.954 11.596 36.776 11.302 C 37.010 11.185 37.333 11.097 37.744 11.038 C 38.330 10.921 38.961 11.068 39.636 11.477 C 40.309 11.888 40.588 13.120 40.471 15.171 C 40.412 16.461 40.295 18.279 40.119 20.624 C 39.943 22.560 39.680 25.521 39.327 29.509 C 39.444 30.447 39.444 31.738 39.327 33.379 C 39.033 34.493 38.153 35.050 36.688 35.050 C 35.925 35.050 35.193 34.845 34.489 34.435 C 34.137 33.322 33.962 32.851 33.962 33.027 C 34.078 31.444 33.756 29.333 32.994 26.694 C 32.348 25.346 31.455 23.426 30.311 20.933 C 29.167 18.441 27.657 17.106 25.781 16.930 C 23.435 16.754 21.911 17.546 21.207 19.305 C 20.973 20.068 20.649 21.183 20.240 22.648 C 19.536 24.818 19.096 26.900 18.920 28.893 C 18.861 29.539 18.802 29.803 18.744 29.685 C 18.920 30.859 19.125 32.031 19.360 33.204 C 19.653 34.670 20.372 35.785 21.515 36.546 C 22.659 37.309 24.842 37.777 28.068 37.953 C 35.984 38.424 40.880 41.180 42.757 46.222 C 43.049 46.692 43.342 47.483 43.636 48.596 Z "/>
    </g>
  </g>
</svg>
